X:31
T:John Benjamin's Q.S.
S:American Veteran Fifer, #31
By A.F. Hopkins National Fife Major
M:6/8
L:1/8
Q:1/8=300
K:G 
%%MIDI program 72
%%MIDI transpose 8
%%MIDI ratio 3 1
|: GAB- BAG | Bde dBd | gfg- ged | efg a3 |
gab age | gag edB | deg edB | egf g3 :|
|: d6- | dBe dBG | g6- | geg- ged |
g3- (gb)a | geg edB | deg- ged | egf g3 :|


